style-guide/assets/xd-icons-more-tiny.svg

<?xml version="1.0" encoding="UTF-8"?>
<svg width="12px" height="12px" viewBox="0 0 12 12" version="1.1" xmlns="http://www.w3.org/2000/svg" xmlns:xlink="http://www.w3.org/1999/xlink">
    <!-- Generator: Sketch 51.3 (57544) - http://www.bohemiancoding.com/sketch -->
    <title>more</title>
    <desc>Created with Sketch.</desc>
    <defs></defs>
    <g id="more" stroke="none" stroke-width="1" fill="none" fill-rule="evenodd">
        <path d="M6.71,5.29026886 C6.8,5.39026886 6.87,5.50026886 6.92,5.62026886 C6.97,5.73926886 7,5.87026886 7,6.00026886 C7,6.26026886 6.89,6.52026886 6.71,6.71026886 C6.66,6.75026886 6.61,6.79026886 6.56,6.82926886 C6.5,6.87026886 6.44,6.89926886 6.38,6.92026886 C6.32,6.95026886 6.26,6.97026886 6.2,6.97926886 C6.13,6.98926886 6.07,7.00026886 6,7.00026886 C5.74,7.00026886 5.48,6.89026886 5.29,6.71026886 C5.11,6.52026886 5,6.26026886 5,6.00026886 C5,5.87026886 5.03,5.73926886 5.08,5.62026886 C5.13,5.50026886 5.2,5.39026886 5.29,5.29026886 C5.52,5.06026886 5.87,4.95026886 6.2,5.02026886 C6.26,5.03026886 6.32,5.05026886 6.38,5.07926886 C6.44,5.10026886 6.5,5.13026886 6.56,5.17026886 C6.61,5.20026886 6.66,5.25026886 6.71,5.29026886 Z M6,2.00116886 C5.74,2.00116886 5.48,1.89116886 5.29,1.71116886 C5.11,1.52116886 5,1.26116886 5,1.00116886 C5,0.870168855 5.03,0.741168855 5.08,0.620168855 C5.13,0.501168855 5.2,0.391168855 5.29,0.291168855 C5.52,0.0621688553 5.87,-0.0498311447 6.2,0.0211688553 C6.26,0.0301688553 6.32,0.0511688553 6.38,0.0811688553 C6.44,0.101168855 6.5,0.131168855 6.56,0.171168855 C6.61,0.200168855 6.66,0.251168855 6.71,0.291168855 C6.8,0.391168855 6.87,0.501168855 6.92,0.620168855 C6.97,0.741168855 7,0.870168855 7,1.00116886 C7,1.26116886 6.89,1.52116886 6.71,1.71116886 C6.66,1.75116886 6.61,1.79116886 6.56,1.83116886 C6.5,1.87016886 6.44,1.90116886 6.38,1.92116886 C6.32,1.95016886 6.26,1.97116886 6.2,1.98116886 C6.13,1.99116886 6.07,2.00116886 6,2.00116886 Z M6.71,10.2911689 C6.8,10.3911689 6.87,10.5011689 6.92,10.6201689 C6.97,10.7411689 7,10.8701689 7,11.0011689 C7,11.2611689 6.89,11.5201689 6.71,11.7111689 C6.66,11.7511689 6.61,11.7911689 6.56,11.8311689 C6.5,11.8701689 6.44,11.9011689 6.38,11.9211689 C6.32,11.9501689 6.26,11.9711689 6.2,11.9811689 C6.13,11.9911689 6.07,12.0011689 6,12.0011689 C5.74,12.0011689 5.48,11.8911689 5.29,11.7111689 C5.11,11.5201689 5,11.2611689 5,11.0011689 C5,10.8701689 5.03,10.7411689 5.08,10.6201689 C5.13,10.5011689 5.2,10.3911689 5.29,10.2911689 C5.52,10.0621689 5.87,9.95016886 6.2,10.0201689 C6.26,10.0301689 6.32,10.0511689 6.38,10.0811689 C6.44,10.1011689 6.5,10.1311689 6.56,10.1711689 C6.61,10.2001689 6.66,10.2511689 6.71,10.2911689 Z" id="Fill-4" fill="#000000"></path>
    </g>
</svg>

<svg viewBox="0 0 12 12" xmlns="http://www.w3.org/2000/svg">
  <path d="M6.71 5.29c.09.1.16.21.21.33.05.12.08.25.08.38 0 .26-.11.52-.29.71l-.15.12a.762.762 0 0 1-.18.09c-.06.03-.12.05-.18.06-.07.01-.13.02-.2.02-.26 0-.52-.11-.71-.29C5.11 6.52 5 6.26 5 6c0-.13.03-.26.08-.38s.12-.23.21-.33c.23-.23.58-.34.91-.27.06.01.12.03.18.06.06.02.12.05.18.09.05.03.1.08.15.12zM6 2.001c-.26 0-.52-.11-.71-.29-.18-.19-.29-.45-.29-.71a1 1 0 0 1 .08-.38c.05-.12.12-.23.21-.33.23-.229.58-.34.91-.27.06.01.12.03.18.06.06.02.12.05.18.09.05.03.1.08.15.12.09.1.16.21.21.33A1 1 0 0 1 7 1c0 .26-.11.52-.29.71l-.15.12a.797.797 0 0 1-.18.09.669.669 0 0 1-.18.06c-.07.01-.13.02-.2.02zm.71 8.29c.09.1.16.21.21.33A1 1 0 0 1 7 11c0 .26-.11.52-.29.71l-.15.12a.797.797 0 0 1-.18.09.669.669 0 0 1-.18.06c-.07.01-.13.02-.2.02-.26 0-.52-.11-.71-.29-.18-.19-.29-.45-.29-.71a1 1 0 0 1 .08-.38c.05-.12.12-.23.21-.33.23-.229.58-.34.91-.27.06.01.12.03.18.06.06.02.12.05.18.09.05.03.1.08.15.12z"/>
</svg>
